build/img/main/n6.svg

<svg width="305" height="415" viewBox="0 0 305 415" fill="none" xmlns="http://www.w3.org/2000/svg">
<g clip-path="url(#clip0)">
<path d="M457 184.174V0L369.064 26.9499C369.064 26.9499 369.461 29.2516 370.18 33.3077L330.297 45.2992C330.297 45.2992 330.576 46.6244 331.102 49.012C325.423 50.0904 321.016 50.804 319.636 50.7181C314.585 50.4016 297.542 48.5076 263.45 29.8954C255.527 25.571 246.246 29.2623 246.246 29.2623C246.246 29.2623 241.04 24.058 228.253 29.2623C215.472 34.4666 118.41 74.6902 113.203 75.1678C107.997 75.6399 93.7932 82.266 90.4758 95.5183C87.1638 108.771 56.3897 185.902 55.4396 192.528C54.4949 199.154 54.1782 205.619 57.0178 208.774C57.0178 208.774 66.17 219.5 80.3734 212.557C80.3734 212.557 87.6308 221.018 99.3113 214.896C99.3113 214.896 97.3252 237.972 117.143 233.063C120.879 232.14 123.928 230.225 132.925 226.598C132.925 226.598 131.508 240.322 142.55 239.534C153.597 238.745 159.276 226.759 163.538 214.612C163.538 214.612 187.999 207.905 202.203 209.563C216.406 211.221 241.791 217.466 260.439 213.351C282.93 208.383 299.737 191.82 299.737 191.82C299.737 191.82 327.908 188.51 339.744 170.289C339.744 170.289 350.92 166.447 363.395 162.44C366.261 168.835 369.069 173.664 371.705 176.126L399.891 169.474C403.031 179.448 406.021 186.685 408.636 189.432L457 184.174ZM145.636 157.267C141.846 161.055 139.957 173.122 139.957 173.122C139.957 173.122 126.698 177.382 117.702 184.952C117.702 184.952 132.141 158.453 134.036 149.461C134.036 149.461 157.472 146.151 164.574 143.548C164.574 143.543 149.426 153.48 145.636 157.267Z" fill="black"/>
<path d="M314.896 52.9232C314.896 52.9232 259.741 38.7266 246.246 29.2623C246.246 29.2623 241.04 24.0579 228.253 29.2623C215.472 34.4666 118.41 74.6902 113.203 75.1677C107.997 75.6399 93.7932 82.266 90.4758 95.5183C87.1638 108.771 56.3897 185.902 55.4396 192.528C54.4949 199.154 54.1782 205.619 57.0178 208.774C57.0178 208.774 58.8536 210.92 62.1549 212.669C60.1526 209.214 57.8015 202.54 61.1242 192.995C66.1754 178.482 96.1604 96.7737 99.6334 90.4642C103.106 84.1546 109.543 79.7389 116.897 78.7893C124.251 77.845 204.264 49.6074 213.1 45.8196C221.935 42.0317 231.801 36.3552 240.562 37.777C245.559 38.5871 289.334 54.184 314.896 52.9232Z" fill="url(#paint0_linear)"/>
<path d="M188.483 156.205C177.833 158.453 164.81 167.209 164.81 167.209L148.948 170.52L139.952 173.122C139.952 173.122 126.693 177.382 117.697 184.952C110.831 191.814 106.73 199.31 106.73 199.31C101.995 206.564 99.3115 214.896 99.3115 214.896C99.3115 214.896 111.319 195.366 126.929 186.766C136.881 181.282 168.595 173.122 168.595 173.122C171.907 170.284 187.801 161.383 191.086 160.111C227.067 146.15 231.802 108.293 231.802 108.293C228.017 131.24 199.138 153.957 188.483 156.205Z" fill="url(#paint1_linear)"/>
<path d="M173.098 139.283C173.098 139.283 150.848 157.74 150.371 159.156C149.898 160.578 148.948 170.515 148.948 170.515L139.951 173.117C139.951 173.117 141.846 161.05 145.631 157.262C149.415 153.474 164.569 143.538 164.569 143.538L173.098 139.283ZM142.56 239.528C142.834 239.507 143.102 239.475 143.365 239.442C141.191 232.14 144.498 221.329 144.498 221.329C143.237 221.801 132.936 226.593 132.936 226.593C132.936 226.593 131.513 240.317 142.56 239.528Z" fill="url(#paint2_linear)"/>
<path d="M80.3789 212.557C80.3789 212.557 92.1775 209.322 103.971 165.788C103.971 165.788 120.305 144.493 121.728 130.06C121.728 130.06 138.771 125.092 143.269 122.254L124.331 133.258C124.331 133.258 116.897 156.087 106.338 167.408C106.343 167.403 99.3973 206.8 80.3789 212.557Z" fill="url(#paint3_linear)"/>
<path d="M116.644 233.17C97.3786 237.543 99.3217 214.896 99.3217 214.896C99.3217 214.896 102.006 206.564 106.74 199.31C106.74 199.31 104.572 195.468 103.031 194.261H100.428C100.428 194.261 98.0603 181.959 89.3804 176.121L87.3299 189.373C87.3299 189.373 84.1736 180.698 82.123 178.332C82.123 178.332 76.7552 194.739 75.9661 196.472C75.177 198.205 63.6575 200.887 62.235 201.837C60.8126 202.781 57.0282 208.78 57.0282 208.78L39.3464 219.494C39.3464 219.494 31.1389 217.128 29.0884 221.86C27.0378 226.592 29.0884 228.958 29.0884 228.958C29.0884 228.958 26.2488 233.374 27.1935 234.952C28.1383 236.529 30.0331 238.262 30.0331 238.262C30.0331 238.262 32.556 248.987 35.401 249.776C38.2406 250.565 46.2924 244.572 48.4986 243.622C50.7102 242.678 56.5451 243.622 56.5451 243.622C56.5451 243.622 53.0721 269.413 29.6359 285.503L32.7117 293.546C32.7117 293.546 23.9513 293.782 21.5841 302.774C21.5841 302.774 18.5083 303.246 16.141 305.612C13.7738 307.979 11.1704 314.369 11.4066 317.679C11.6428 320.989 17.322 339.446 44.0755 346.544C59.4223 350.617 75.8856 348.985 80.5288 344.886C85.8967 340.154 86.208 332.106 85.9718 330.926C85.7356 329.746 83.8408 327.143 83.8408 327.143C83.8408 327.143 91.2592 317.759 84.6299 308.606L97.4108 304.507L100.884 295.515L110.508 287.784C110.525 287.8 118.405 260.286 116.644 233.17Z" fill="url(#paint4_linear)"/>
<path d="M86.3799 197.41H89.3752C89.8475 193.783 89.3752 176.115 89.3752 176.115L87.3246 189.368L86.3799 197.41Z" fill="url(#paint5_linear)"/>
<path d="M62.2297 201.831C60.8072 202.775 57.0228 208.774 57.0228 208.774L39.3464 219.494C39.3464 219.494 31.1389 217.127 29.0883 221.86C27.0378 226.592 29.0883 228.958 29.0883 228.958C29.0883 228.958 26.2487 233.374 27.1935 234.951C28.1382 236.528 30.0331 238.261 30.0331 238.261C30.0331 238.261 28.6106 234.318 30.0331 232.585C31.4556 230.847 32.8727 228.797 32.8727 228.797C32.8727 228.797 30.3498 226.114 31.1389 223.432C31.928 220.749 39.8187 221.854 39.8187 221.854C39.8187 221.854 62.7235 213.731 64.146 212.154C65.5685 210.576 67.0446 205.292 67.0446 205.292C67.0446 205.292 77.775 201.193 79.3532 200.087C80.9314 198.982 82.5847 179.265 82.1123 178.32C82.1123 178.32 76.7444 194.727 75.9553 196.46C75.1716 198.199 63.6521 200.881 62.2297 201.831Z" fill="url(#paint6_linear)"/>
<path d="M56.5508 243.633C56.5508 243.633 53.0778 269.424 29.6416 285.514L32.7174 293.557L38.8744 306.412C60.6519 285.117 68.4675 245.285 68.4675 245.285C65.1501 245.285 56.5508 243.633 56.5508 243.633Z" fill="url(#paint7_linear)"/>
<path d="M30.0384 298.68C30.3551 294.42 32.7223 293.557 32.7223 293.557C32.7223 293.557 23.962 293.793 21.5947 302.785C23.0924 309.567 25.4596 310.672 25.4596 310.672C24.6705 305.468 30.0277 303.574 30.0277 303.574C36.0129 314.932 54.5857 318.087 54.5857 318.087C36.2061 312.566 29.7217 302.941 30.0384 298.68Z" fill="url(#paint8_linear)"/>
<path d="M21.5948 302.785C21.5948 302.785 18.519 303.257 16.1518 305.623C13.7845 307.989 11.1811 314.38 11.4173 317.69C11.4978 318.79 12.1849 321.574 14.0476 325.056C16.1571 320.963 19.4691 316.51 19.4691 316.51C34.7783 331.495 49.4541 331.495 49.4541 331.495C28.149 325.341 20.2582 313.988 18.9968 309.567C17.7299 305.151 21.5948 302.785 21.5948 302.785Z" fill="url(#paint9_linear)"/>
</g>
<defs>
<linearGradient id="paint0_linear" x1="53.2645" y1="191.169" x2="283.921" y2="5.485" gradientUnits="userSpaceOnUse">
<stop stop-color="#FFF0B5"/>
<stop offset="0.2773" stop-color="#9BE0CD"/>
<stop offset="0.5337" stop-color="#42D1E2"/>
<stop offset="0.5863" stop-color="#3DC1D0"/>
<stop offset="0.6916" stop-color="#2F96A2"/>
<stop offset="0.8398" stop-color="#1A5158"/>
<stop offset="1"/>
</linearGradient>
<linearGradient id="paint1_linear" x1="97.6596" y1="206.679" x2="239.86" y2="116.891" gradientUnits="userSpaceOnUse">
<stop/>
<stop offset="0.3435" stop-color="#1A5158"/>
<stop offset="0.6614" stop-color="#2F96A2"/>
<stop offset="0.8872" stop-color="#3DC1D0"/>
<stop offset="1" stop-color="#42D1E2"/>
</linearGradient>
<linearGradient id="paint2_linear" x1="134.042" y1="243.212" x2="163.727" y2="127.572" gradientUnits="userSpaceOnUse">
<stop/>
<stop offset="0.1454" stop-color="#1A5158"/>
<stop offset="0.28" stop-color="#2F96A2"/>
<stop offset="0.3756" stop-color="#3DC1D0"/>
<stop offset="0.4233" stop-color="#42D1E2"/>
<stop offset="0.7004" stop-color="#9BE0CD"/>
<stop offset="1" stop-color="#FFF0B5"/>
</linearGradient>
<linearGradient id="paint3_linear" x1="84.5947" y1="210.686" x2="135.764" y2="120.307" gradientUnits="userSpaceOnUse">
<stop/>
<stop offset="0.1454" stop-color="#1A5158"/>
<stop offset="0.28" stop-color="#2F96A2"/>
<stop offset="0.3756" stop-color="#3DC1D0"/>
<stop offset="0.4233" stop-color="#42D1E2"/>
<stop offset="0.7004" stop-color="#9BE0CD"/>
<stop offset="1" stop-color="#FFF0B5"/>
</linearGradient>
<linearGradient id="paint4_linear" x1="17.4204" y1="242.276" x2="115.65" y2="280.741" gradientUnits="userSpaceOnUse">
<stop stop-color="#00738D"/>
<stop offset="0.0859" stop-color="#00738D"/>
<stop offset="0.1505" stop-color="#00677E"/>
<stop offset="0.4536" stop-color="#00303A"/>
<stop offset="0.6731" stop-color="#000D10"/>
<stop offset="0.7853"/>
<stop offset="1"/>
</linearGradient>
<linearGradient id="paint5_linear" x1="89.5751" y1="176.871" x2="87.6982" y2="199.673" gradientUnits="userSpaceOnUse">
<stop stop-color="#FFF0B5"/>
<stop offset="0.2773" stop-color="#9BE0CD"/>
<stop offset="0.5337" stop-color="#42D1E2"/>
<stop offset="0.6451" stop-color="#36BFD2"/>
<stop offset="0.8663" stop-color="#1692A9"/>
<stop offset="1" stop-color="#00738D"/>
</linearGradient>
<linearGradient id="paint6_linear" x1="23.4819" y1="228.634" x2="82.5127" y2="191.767" gradientUnits="userSpaceOnUse">
<stop stop-color="#00738D"/>
<stop offset="0.1337" stop-color="#1692A9"/>
<stop offset="0.3549" stop-color="#36BFD2"/>
<stop offset="0.4663" stop-color="#42D1E2"/>
<stop offset="0.7227" stop-color="#9BE0CD"/>
<stop offset="1" stop-color="#FFF0B5"/>
</linearGradient>
<linearGradient id="paint7_linear" x1="67.0608" y1="243.309" x2="28.2129" y2="308.504" gradientUnits="userSpaceOnUse">
<stop stop-color="#00738D"/>
<stop offset="0.1337" stop-color="#1692A9"/>
<stop offset="0.3549" stop-color="#36BFD2"/>
<stop offset="0.4663" stop-color="#42D1E2"/>
<stop offset="0.7227" stop-color="#9BE0CD"/>
<stop offset="1" stop-color="#FFF0B5"/>
</linearGradient>
<linearGradient id="paint8_linear" x1="22.02" y1="296.318" x2="53.9464" y2="322.623" gradientUnits="userSpaceOnUse">
<stop stop-color="#FFF0B5"/>
<stop offset="0.2773" stop-color="#9BE0CD"/>
<stop offset="0.5337" stop-color="#42D1E2"/>
<stop offset="0.6451" stop-color="#36BFD2"/>
<stop offset="0.8663" stop-color="#1692A9"/>
<stop offset="1" stop-color="#00738D"/>
</linearGradient>
<linearGradient id="paint9_linear" x1="9.87715" y1="307.699" x2="49.5853" y2="338.837" gradientUnits="userSpaceOnUse">
<stop stop-color="#FFF0B5"/>
<stop offset="0.2773" stop-color="#9BE0CD"/>
<stop offset="0.5337" stop-color="#42D1E2"/>
<stop offset="0.6451" stop-color="#36BFD2"/>
<stop offset="0.8663" stop-color="#1692A9"/>
<stop offset="1" stop-color="#00738D"/>
</linearGradient>
<clipPath id="clip0">
<rect width="457" height="415" fill="white"/>
</clipPath>
</defs>
</svg>

<svg width="305" height="415" fill="none" xmlns="http://www.w3.org/2000/svg"><g clip-path="url(#clip0)"><path d="M457 184.174V0l-87.936 26.95s.397 2.302 1.116 6.358l-39.883 11.991s.279 1.325.805 3.713c-5.679 1.078-10.086 1.792-11.466 1.706-5.051-.316-22.094-2.21-56.186-20.823-7.923-4.324-17.204-.633-17.204-.633s-5.206-5.204-17.993 0c-12.781 5.205-109.843 45.428-115.05 45.906-5.206.472-19.41 7.098-22.727 20.35-3.312 13.253-34.086 90.384-35.036 97.01-.945 6.626-1.262 13.091 1.578 16.246 0 0 9.152 10.726 23.355 3.783 0 0 7.258 8.461 18.938 2.339 0 0-1.986 23.076 17.832 18.167 3.736-.923 6.785-2.838 15.782-6.465 0 0-1.417 13.724 9.625 12.936 11.047-.789 16.726-12.775 20.988-24.922 0 0 24.461-6.707 38.665-5.049 14.203 1.658 39.588 7.903 58.236 3.788 22.491-4.968 39.298-21.531 39.298-21.531s28.171-3.31 40.007-21.531c0 0 11.176-3.842 23.651-7.849 2.866 6.395 5.674 11.224 8.31 13.686l28.186-6.652c3.14 9.974 6.13 17.211 8.745 19.958L457 184.174zm-311.364-26.907c-3.79 3.788-5.679 15.855-5.679 15.855s-13.259 4.26-22.255 11.83c0 0 14.439-26.499 16.334-35.491 0 0 23.436-3.31 30.538-5.913 0-.005-15.148 9.932-18.938 13.719z" fill="#000"/><path d="M314.896 52.923s-55.155-14.196-68.65-23.66c0 0-5.206-5.205-17.993 0-12.781 5.204-109.843 45.427-115.05 45.905-5.206.472-19.41 7.098-22.727 20.35-3.312 13.253-34.086 90.384-35.036 97.01-.945 6.626-1.262 13.091 1.578 16.246 0 0 1.836 2.146 5.137 3.895-2.002-3.455-4.354-10.129-1.03-19.674 5.05-14.513 35.035-96.221 38.508-102.53 3.473-6.31 9.91-10.726 17.264-11.676 7.354-.944 87.367-29.182 96.203-32.97 8.835-3.787 18.701-9.464 27.462-8.042 4.997.81 48.772 16.407 74.334 15.146z" fill="url(#paint0_linear)"/><path d="M188.483 156.205c-10.65 2.248-23.673 11.004-23.673 11.004l-15.862 3.311-8.996 2.602s-13.259 4.26-22.255 11.83c-6.866 6.862-10.967 14.358-10.967 14.358-4.735 7.254-7.419 15.586-7.419 15.586s12.008-19.53 27.618-28.13c9.952-5.484 41.666-13.644 41.666-13.644 3.312-2.838 19.206-11.739 22.491-13.011 35.981-13.961 40.716-51.818 40.716-51.818-3.785 22.947-32.664 45.664-43.319 47.912z" fill="url(#paint1_linear)"/><path d="M173.098 139.283s-22.25 18.457-22.727 19.873c-.473 1.422-1.423 11.359-1.423 11.359l-8.997 2.602s1.895-12.067 5.68-15.855c3.784-3.788 18.938-13.724 18.938-13.724l8.529-4.255zM142.56 239.528c.274-.021.542-.053.805-.086-2.174-7.302 1.133-18.113 1.133-18.113-1.261.472-11.562 5.264-11.562 5.264s-1.423 13.724 9.624 12.935z" fill="url(#paint2_linear)"/><path d="M80.379 212.557s11.798-3.235 23.592-46.769c0 0 16.334-21.295 17.757-35.728 0 0 17.043-4.968 21.541-7.806l-18.938 11.004s-7.434 22.829-17.993 34.15c.005-.005-6.94 39.392-25.96 45.149z" fill="url(#paint3_linear)"/><path d="M116.644 233.17c-19.265 4.373-17.322-18.274-17.322-18.274s2.684-8.332 7.418-15.586c0 0-2.168-3.842-3.709-5.049h-2.603s-2.368-12.302-11.048-18.14l-2.05 13.252s-3.156-8.675-5.207-11.041c0 0-5.368 16.407-6.157 18.14-.789 1.733-12.308 4.415-13.731 5.365-1.422.944-5.207 6.943-5.207 6.943l-17.682 10.714s-8.207-2.366-10.258 2.366c-2.05 4.732 0 7.098 0 7.098s-2.84 4.416-1.895 5.994c.945 1.577 2.84 3.31 2.84 3.31s2.523 10.725 5.368 11.514c2.84.789 10.891-5.204 13.098-6.154 2.211-.944 8.046 0 8.046 0s-3.473 25.791-26.91 41.881l3.077 8.043s-8.76.236-11.128 9.228c0 0-3.076.472-5.443 2.838-2.367 2.367-4.97 8.757-4.734 12.067.236 3.31 5.915 21.767 32.669 28.865 15.346 4.073 31.81 2.441 36.453-1.658 5.368-4.732 5.679-12.78 5.443-13.96-.236-1.18-2.131-3.783-2.131-3.783s7.418-9.384.789-18.537l12.78-4.099 3.474-8.992 9.624-7.731c.017.016 7.897-27.498 6.136-54.614z" fill="url(#paint4_linear)"/><path d="M86.38 197.41h2.995c.472-3.627 0-21.295 0-21.295l-2.05 13.253-.945 8.042z" fill="url(#paint5_linear)"/><path d="M62.23 201.831c-1.423.944-5.207 6.943-5.207 6.943l-17.677 10.72s-8.207-2.367-10.258 2.366c-2.05 4.732 0 7.098 0 7.098s-2.84 4.416-1.895 5.993c.945 1.577 2.84 3.31 2.84 3.31s-1.422-3.943 0-5.676c1.423-1.738 2.84-3.788 2.84-3.788s-2.523-2.683-1.734-5.365c.789-2.683 8.68-1.578 8.68-1.578s22.904-8.123 24.327-9.7c1.422-1.578 2.899-6.862 2.899-6.862s10.73-4.099 12.308-5.205c1.578-1.105 3.232-20.822 2.76-21.767 0 0-5.369 16.407-6.158 18.14-.783 1.739-12.303 4.421-13.725 5.371z" fill="url(#paint6_linear)"/><path d="M56.55 243.633s-3.472 25.791-26.908 41.881l3.075 8.043 6.157 12.855c21.778-21.295 29.593-61.127 29.593-61.127-3.317 0-11.916-1.652-11.916-1.652z" fill="url(#paint7_linear)"/><path d="M30.038 298.68c.317-4.26 2.684-5.123 2.684-5.123s-8.76.236-11.127 9.228c1.497 6.782 3.865 7.887 3.865 7.887-.79-5.204 4.568-7.098 4.568-7.098 5.985 11.358 24.558 14.513 24.558 14.513-18.38-5.521-24.864-15.146-24.548-19.407z" fill="url(#paint8_linear)"/><path d="M21.595 302.785s-3.076.472-5.443 2.838c-2.368 2.366-4.97 8.757-4.735 12.067.08 1.1.768 3.884 2.63 7.366 2.11-4.093 5.422-8.546 5.422-8.546 15.31 14.985 29.985 14.985 29.985 14.985-21.305-6.154-29.196-17.507-30.457-21.928-1.267-4.416 2.598-6.782 2.598-6.782z" fill="url(#paint9_linear)"/></g><defs><linearGradient id="paint0_linear" x1="53.264" y1="191.169" x2="283.921" y2="5.485" gradientUnits="userSpaceOnUse"><stop stop-color="#FFF0B5"/><stop offset=".277" stop-color="#9BE0CD"/><stop offset=".534" stop-color="#42D1E2"/><stop offset=".586" stop-color="#3DC1D0"/><stop offset=".692" stop-color="#2F96A2"/><stop offset=".84" stop-color="#1A5158"/><stop offset="1"/></linearGradient><linearGradient id="paint1_linear" x1="97.66" y1="206.679" x2="239.86" y2="116.891" gradientUnits="userSpaceOnUse"><stop/><stop offset=".344" stop-color="#1A5158"/><stop offset=".661" stop-color="#2F96A2"/><stop offset=".887" stop-color="#3DC1D0"/><stop offset="1" stop-color="#42D1E2"/></linearGradient><linearGradient id="paint2_linear" x1="134.042" y1="243.212" x2="163.727" y2="127.572" gradientUnits="userSpaceOnUse"><stop/><stop offset=".145" stop-color="#1A5158"/><stop offset=".28" stop-color="#2F96A2"/><stop offset=".376" stop-color="#3DC1D0"/><stop offset=".423" stop-color="#42D1E2"/><stop offset=".7" stop-color="#9BE0CD"/><stop offset="1" stop-color="#FFF0B5"/></linearGradient><linearGradient id="paint3_linear" x1="84.595" y1="210.686" x2="135.764" y2="120.307" gradientUnits="userSpaceOnUse"><stop/><stop offset=".145" stop-color="#1A5158"/><stop offset=".28" stop-color="#2F96A2"/><stop offset=".376" stop-color="#3DC1D0"/><stop offset=".423" stop-color="#42D1E2"/><stop offset=".7" stop-color="#9BE0CD"/><stop offset="1" stop-color="#FFF0B5"/></linearGradient><linearGradient id="paint4_linear" x1="17.42" y1="242.276" x2="115.65" y2="280.741" gradientUnits="userSpaceOnUse"><stop stop-color="#00738D"/><stop offset=".086" stop-color="#00738D"/><stop offset=".15" stop-color="#00677E"/><stop offset=".454" stop-color="#00303A"/><stop offset=".673" stop-color="#000D10"/><stop offset=".785"/><stop offset="1"/></linearGradient><linearGradient id="paint5_linear" x1="89.575" y1="176.871" x2="87.698" y2="199.673" gradientUnits="userSpaceOnUse"><stop stop-color="#FFF0B5"/><stop offset=".277" stop-color="#9BE0CD"/><stop offset=".534" stop-color="#42D1E2"/><stop offset=".645" stop-color="#36BFD2"/><stop offset=".866" stop-color="#1692A9"/><stop offset="1" stop-color="#00738D"/></linearGradient><linearGradient id="paint6_linear" x1="23.482" y1="228.634" x2="82.513" y2="191.767" gradientUnits="userSpaceOnUse"><stop stop-color="#00738D"/><stop offset=".134" stop-color="#1692A9"/><stop offset=".355" stop-color="#36BFD2"/><stop offset=".466" stop-color="#42D1E2"/><stop offset=".723" stop-color="#9BE0CD"/><stop offset="1" stop-color="#FFF0B5"/></linearGradient><linearGradient id="paint7_linear" x1="67.061" y1="243.309" x2="28.213" y2="308.504" gradientUnits="userSpaceOnUse"><stop stop-color="#00738D"/><stop offset=".134" stop-color="#1692A9"/><stop offset=".355" stop-color="#36BFD2"/><stop offset=".466" stop-color="#42D1E2"/><stop offset=".723" stop-color="#9BE0CD"/><stop offset="1" stop-color="#FFF0B5"/></linearGradient><linearGradient id="paint8_linear" x1="22.02" y1="296.318" x2="53.946" y2="322.623" gradientUnits="userSpaceOnUse"><stop stop-color="#FFF0B5"/><stop offset=".277" stop-color="#9BE0CD"/><stop offset=".534" stop-color="#42D1E2"/><stop offset=".645" stop-color="#36BFD2"/><stop offset=".866" stop-color="#1692A9"/><stop offset="1" stop-color="#00738D"/></linearGradient><linearGradient id="paint9_linear" x1="9.877" y1="307.699" x2="49.585" y2="338.837" gradientUnits="userSpaceOnUse"><stop stop-color="#FFF0B5"/><stop offset=".277" stop-color="#9BE0CD"/><stop offset=".534" stop-color="#42D1E2"/><stop offset=".645" stop-color="#36BFD2"/><stop offset=".866" stop-color="#1692A9"/><stop offset="1" stop-color="#00738D"/></linearGradient><clipPath id="clip0"><path fill="#fff" d="M0 0h457v415H0z"/></clipPath></defs></svg>
